src/icons/common/edit-copy.svg

<?xml version="1.0" encoding="UTF-8" standalone="no"?>
<!-- Created with Inkscape (http://www.inkscape.org/) -->
<svg
   xmlns:dc="http://purl.org/dc/elements/1.1/"
   xmlns:cc="http://web.resource.org/cc/"
   xmlns:rdf="http://www.w3.org/1999/02/22-rdf-syntax-ns#"
   xmlns:svg="http://www.w3.org/2000/svg"
   xmlns="http://www.w3.org/2000/svg"
   xmlns:xlink="http://www.w3.org/1999/xlink"
   xmlns:sodipodi="http://inkscape.sourceforge.net/DTD/sodipodi-0.dtd"
   xmlns:inkscape="http://www.inkscape.org/namespaces/inkscape"
   width="48px"
   height="48px"
   id="svg4198"
   sodipodi:version="0.32"
   inkscape:version="0.43+devel"
   sodipodi:docbase="/home/tigert/cvs/freedesktop.org/tango-icon-theme/scalable/actions"
   sodipodi:docname="edit-copy.svg"
   inkscape:output_extension="org.inkscape.output.svg.inkscape">
  <defs
     id="defs4200">
    <linearGradient
       id="linearGradient15218">
      <stop
         style="stop-color:#f0f0ef;stop-opacity:1.0000000;"
         offset="0.0000000"
         id="stop15220" />
      <stop
         id="stop2269"
         offset="0.59928656"
         style="stop-color:#e8e8e8;stop-opacity:1;" />
      <stop
         id="stop2267"
         offset="0.82758623"
         style="stop-color:#ffffff;stop-opacity:1;" />
      <stop
         style="stop-color:#d8d8d3;stop-opacity:1.0000000;"
         offset="1.0000000"
         id="stop15222" />
    </linearGradient>
    <linearGradient
       inkscape:collect="always"
       id="linearGradient2259">
      <stop
         style="stop-color:#ffffff;stop-opacity:1;"
         offset="0"
         id="stop2261" />
      <stop
         style="stop-color:#ffffff;stop-opacity:0;"
         offset="1"
         id="stop2263" />
    </linearGradient>
    <linearGradient
       id="linearGradient2224">
      <stop
         style="stop-color:#7c7c7c;stop-opacity:1;"
         offset="0"
         id="stop2226" />
      <stop
         style="stop-color:#b8b8b8;stop-opacity:1;"
         offset="1"
         id="stop2228" />
    </linearGradient>
    <linearGradient
       inkscape:collect="always"
       xlink:href="#linearGradient2224"
       id="linearGradient2230"
       x1="35.996582"
       y1="40.458221"
       x2="33.664921"
       y2="37.770721"
       gradientUnits="userSpaceOnUse"
       gradientTransform="translate(6.161836,4.033411)" />
    <linearGradient
       inkscape:collect="always"
       id="linearGradient2251">
      <stop
         style="stop-color:#ffffff;stop-opacity:1;"
         offset="0"
         id="stop2253" />
      <stop
         style="stop-color:#ffffff;stop-opacity:0;"
         offset="1"
         id="stop2255" />
    </linearGradient>
    <linearGradient
       inkscape:collect="always"
       xlink:href="#linearGradient2251"
       id="linearGradient2257"
       x1="33.396004"
       y1="36.921333"
       x2="34.170048"
       y2="38.070381"
       gradientUnits="userSpaceOnUse"
       gradientTransform="translate(6.161836,3.658411)" />
    <linearGradient
       inkscape:collect="always"
       xlink:href="#linearGradient15218"
       id="linearGradient4258"
       gradientUnits="userSpaceOnUse"
       gradientTransform="matrix(1.065698,0.000000,0.000000,0.987595,-8.548320,-4.891713)"
       x1="22.308331"
       y1="18.992140"
       x2="35.785294"
       y2="39.498238" />
    <linearGradient
       inkscape:collect="always"
       xlink:href="#linearGradient2259"
       id="linearGradient4260"
       gradientUnits="userSpaceOnUse"
       gradientTransform="matrix(0.998504,0.000000,0.000000,0.998246,-6.970391,-4.892901)"
       x1="26.076092"
       y1="26.696676"
       x2="30.811172"
       y2="42.007351" />
    <linearGradient
       inkscape:collect="always"
       xlink:href="#linearGradient2259"
       id="linearGradient13651"
       gradientUnits="userSpaceOnUse"
       gradientTransform="matrix(0.999421,0.000000,0.000000,1.000000,5.991319,4.033411)"
       x1="26.076092"
       y1="26.696676"
       x2="30.811172"
       y2="42.007351" />
    <linearGradient
       inkscape:collect="always"
       xlink:href="#linearGradient15218"
       id="linearGradient13653"
       gradientUnits="userSpaceOnUse"
       gradientTransform="matrix(1.067236,0.000000,0.000000,0.989276,4.391684,4.035227)"
       x1="22.308331"
       y1="18.992140"
       x2="35.785294"
       y2="39.498238" />
  </defs>
  <sodipodi:namedview
     id="base"
     pagecolor="#ffffff"
     bordercolor="#bebebe"
     borderopacity="1.0000000"
     inkscape:pageopacity="0.0"
     inkscape:pageshadow="2"
     inkscape:zoom="1.4142136"
     inkscape:cx="56.648344"
     inkscape:cy="48.133585"
     inkscape:current-layer="layer1"
     showgrid="false"
     inkscape:grid-bbox="true"
     inkscape:document-units="px"
     inkscape:window-width="873"
     inkscape:window-height="699"
     inkscape:window-x="264"
     inkscape:window-y="242"
     inkscape:showpageshadow="false" />
  <metadata
     id="metadata4203">
    <rdf:RDF>
      <cc:Work
         rdf:about="">
        <dc:format>image/svg+xml</dc:format>
        <dc:type
           rdf:resource="http://purl.org/dc/dcmitype/StillImage" />
        <dc:title>Edit Copy</dc:title>
        <dc:date>2005-10-15</dc:date>
        <dc:creator>
          <cc:Agent>
            <dc:title>Andreas Nilsson</dc:title>
          </cc:Agent>
        </dc:creator>
        <dc:subject>
          <rdf:Bag>
            <rdf:li>edit</rdf:li>
            <rdf:li>copy</rdf:li>
          </rdf:Bag>
        </dc:subject>
        <cc:license
           rdf:resource="http://creativecommons.org/licenses/by-sa/2.0/" />
        <dc:contributor>
          <cc:Agent>
            <dc:title>Jakub Steiner</dc:title>
          </cc:Agent>
        </dc:contributor>
      </cc:Work>
      <cc:License
         rdf:about="http://creativecommons.org/licenses/by-sa/2.0/">
        <cc:permits
           rdf:resource="http://web.resource.org/cc/Reproduction" />
        <cc:permits
           rdf:resource="http://web.resource.org/cc/Distribution" />
        <cc:requires
           rdf:resource="http://web.resource.org/cc/Notice" />
        <cc:requires
           rdf:resource="http://web.resource.org/cc/Attribution" />
        <cc:permits
           rdf:resource="http://web.resource.org/cc/DerivativeWorks" />
        <cc:requires
           rdf:resource="http://web.resource.org/cc/ShareAlike" />
      </cc:License>
    </rdf:RDF>
  </metadata>
  <g
     id="layer1"
     inkscape:label="Layer 1"
     inkscape:groupmode="layer">
    <g
       id="g4268"
       style="opacity:0.49999997"
       transform="matrix(1.001508,0.000000,0.000000,1.000616,-5.002205e-2,-6.304895e-2)">
      <rect
         y="34.033413"
         x="20.161837"
         height="2.0000000"
         width="13.000000"
         id="rect2279"
         style="opacity:0.17045452;color:#000000;fill:#000000;fill-opacity:1.0000000;fill-rule:evenodd;stroke:none;stroke-width:1.0000000;stroke-linecap:butt;stroke-linejoin:miter;marker:none;marker-start:none;marker-mid:none;marker-end:none;stroke-miterlimit:4.0000000;stroke-dasharray:none;stroke-dashoffset:0.0000000;stroke-opacity:1.0000000;visibility:visible;display:inline;overflow:visible" />
      <rect
         ry="0.56615961"
         rx="0.56565511"
         y="1.5629303"
         x="1.5484408"
         height="35.976688"
         width="30.951559"
         id="rect4238"
         style="opacity:1.0000000;fill:url(#linearGradient4258);fill-opacity:1.0000000;fill-rule:evenodd;stroke:#888a85;stroke-width:0.99893934;stroke-linecap:butt;stroke-linejoin:miter;stroke-miterlimit:4.0000000;stroke-dasharray:none;stroke-dashoffset:0.0000000;stroke-opacity:1.0000000" />
      <rect
         ry="0.0000000"
         rx="0.0000000"
         y="2.5605955"
         x="2.5325129"
         height="33.981056"
         width="28.970741"
         id="rect4240"
         style="opacity:1.0000000;fill:none;fill-opacity:1.0000000;fill-rule:evenodd;stroke:url(#linearGradient4260);stroke-width:0.99893963;stroke-linecap:butt;stroke-linejoin:miter;stroke-miterlimit:4.0000000;stroke-dasharray:none;stroke-dashoffset:0.0000000;stroke-opacity:1.0000000" />
      <rect
         y="10.033414"
         x="7.0161190"
         height="2.0000000"
         width="21.000000"
         id="rect4248"
         style="opacity:0.17045452;color:#000000;fill:#000000;fill-opacity:1.0000000;fill-rule:evenodd;stroke:none;stroke-width:1.0000000;stroke-linecap:butt;stroke-linejoin:miter;marker:none;marker-start:none;marker-mid:none;marker-end:none;stroke-miterlimit:4.0000000;stroke-dasharray:none;stroke-dashoffset:0.0000000;stroke-opacity:1.0000000;visibility:visible;display:inline;overflow:visible" />
      <rect
         style="opacity:0.17045452;color:#000000;fill:#000000;fill-opacity:1.0000000;fill-rule:evenodd;stroke:none;stroke-width:1.0000000;stroke-linecap:butt;stroke-linejoin:miter;marker:none;marker-start:none;marker-mid:none;marker-end:none;stroke-miterlimit:4.0000000;stroke-dasharray:none;stroke-dashoffset:0.0000000;stroke-opacity:1.0000000;visibility:visible;display:inline;overflow:visible"
         id="rect4250"
         width="20.000000"
         height="2.0000000"
         x="7.0161190"
         y="14.033414" />
      <rect
         y="18.033415"
         x="7.0161190"
         height="2.0000000"
         width="18.000000"
         id="rect4252"
         style="opacity:0.17045452;color:#000000;fill:#000000;fill-opacity:1.0000000;fill-rule:evenodd;stroke:none;stroke-width:1.0000000;stroke-linecap:butt;stroke-linejoin:miter;marker:none;marker-start:none;marker-mid:none;marker-end:none;stroke-miterlimit:4.0000000;stroke-dasharray:none;stroke-dashoffset:0.0000000;stroke-opacity:1.0000000;visibility:visible;display:inline;overflow:visible" />
      <rect
         style="opacity:0.17045452;color:#000000;fill:#000000;fill-opacity:1.0000000;fill-rule:evenodd;stroke:none;stroke-width:1.0000000;stroke-linecap:butt;stroke-linejoin:miter;marker:none;marker-start:none;marker-mid:none;marker-end:none;stroke-miterlimit:4.0000000;stroke-dasharray:none;stroke-dashoffset:0.0000000;stroke-opacity:1.0000000;visibility:visible;display:inline;overflow:visible"
         id="rect4254"
         width="21.000000"
         height="2.0000000"
         x="7.0161190"
         y="22.033415" />
      <rect
         y="26.033413"
         x="7.0161190"
         height="2.0000000"
         width="13.000000"
         id="rect4256"
         style="opacity:0.17045452;color:#000000;fill:#000000;fill-opacity:1.0000000;fill-rule:evenodd;stroke:none;stroke-width:1.0000000;stroke-linecap:butt;stroke-linejoin:miter;marker:none;marker-start:none;marker-mid:none;marker-end:none;stroke-miterlimit:4.0000000;stroke-dasharray:none;stroke-dashoffset:0.0000000;stroke-opacity:1.0000000;visibility:visible;display:inline;overflow:visible" />
    </g>
    <g
       id="g12863">
      <path
         style="fill:url(#linearGradient13653);fill-opacity:1.0000000;fill-rule:evenodd;stroke:#888a85;stroke-width:1.0000002;stroke-linecap:butt;stroke-linejoin:miter;stroke-miterlimit:4.0000000;stroke-dashoffset:0.0000000;stroke-opacity:1.0000000"
         d="M 15.072946,10.500852 L 44.929331,10.500852 C 45.245071,10.500852 45.499257,10.753945 45.499257,11.068324 L 45.499257,38.235686 C 45.499257,40.712138 38.619447,46.538773 36.231325,46.538773 L 15.072946,46.538773 C 14.757206,46.538773 14.50302,46.285681 14.50302,45.9713 L 14.50302,11.068324 C 14.50302,10.753945 14.757206,10.500852 15.072946,10.500852 z "
         id="rect12413"
         sodipodi:nodetypes="ccccccccc" />
      <rect
         ry="0.0000000"
         rx="0.0000000"
         y="11.500000"
         x="15.502951"
         height="34.040764"
         width="28.997349"
         id="rect15244"
         style="opacity:1.0000000;fill:none;fill-opacity:1.0000000;fill-rule:evenodd;stroke:url(#linearGradient13651);stroke-width:1.0000008;stroke-linecap:butt;stroke-linejoin:miter;stroke-miterlimit:4.0000000;stroke-dasharray:none;stroke-dashoffset:0.0000000;stroke-opacity:1.0000000" />
      <path
         sodipodi:nodetypes="cccc"
         id="path2210"
         d="M 36.220918,46.536966 C 38.251336,46.866864 45.809711,42.007037 45.505329,38.039122 C 43.942067,40.462219 40.746807,39.32586 36.638049,39.48487 C 36.638049,39.48487 37.033418,46.036966 36.220918,46.536966 z "
         style="opacity:1.0000000;color:#000000;fill:url(#linearGradient2230);fill-opacity:1.0000000;fill-rule:evenodd;stroke:#868a84;stroke-width:1.0000002;stroke-linecap:butt;stroke-linejoin:miter;marker:none;marker-start:none;marker-mid:none;marker-end:none;stroke-miterlimit:4.0000000;stroke-dasharray:none;stroke-dashoffset:0.0000000;stroke-opacity:1.0000000;visibility:visible;display:inline;overflow:visible" />
      <path
         style="opacity:0.36931817;color:#000000;fill:none;fill-opacity:1;fill-rule:evenodd;stroke:url(#linearGradient2257);stroke-width:0.99999982;stroke-linecap:butt;stroke-linejoin:miter;marker:none;marker-start:none;marker-mid:none;marker-end:none;stroke-miterlimit:4;stroke-dasharray:none;stroke-dashoffset:0;stroke-opacity:1;visibility:visible;display:inline;overflow:visible"
         d="M 37.671355,44.345464 C 39.041134,43.661635 42.099604,42.198999 43.398985,40.317995 C 41.802891,40.99805 40.451175,40.527491 37.696651,40.5084 C 37.696651,40.5084 37.858973,43.570494 37.671355,44.345464 z "
         id="path2247"
         sodipodi:nodetypes="cccc" />
      <rect
         y="19.033415"
         x="20.000000"
         height="2.0000000"
         width="21.000000"
         id="rect2271"
         style="opacity:0.17045452;color:#000000;fill:#000000;fill-opacity:1.0000000;fill-rule:evenodd;stroke:none;stroke-width:1.0000000;stroke-linecap:butt;stroke-linejoin:miter;marker:none;marker-start:none;marker-mid:none;marker-end:none;stroke-miterlimit:4.0000000;stroke-dasharray:none;stroke-dashoffset:0.0000000;stroke-opacity:1.0000000;visibility:visible;display:inline;overflow:visible" />
      <rect
         style="opacity:0.17045452;color:#000000;fill:#000000;fill-opacity:1.0000000;fill-rule:evenodd;stroke:none;stroke-width:1.0000000;stroke-linecap:butt;stroke-linejoin:miter;marker:none;marker-start:none;marker-mid:none;marker-end:none;stroke-miterlimit:4.0000000;stroke-dasharray:none;stroke-dashoffset:0.0000000;stroke-opacity:1.0000000;visibility:visible;display:inline;overflow:visible"
         id="rect2273"
         width="19.992233"
         height="2.0000000"
         x="20.000000"
         y="23.033415" />
      <rect
         y="27.033415"
         x="20.000000"
         height="2.0000000"
         width="17.976702"
         id="rect2275"
         style="opacity:0.17045452;color:#000000;fill:#000000;fill-opacity:1.0000000;fill-rule:evenodd;stroke:none;stroke-width:1.0000000;stroke-linecap:butt;stroke-linejoin:miter;marker:none;marker-start:none;marker-mid:none;marker-end:none;stroke-miterlimit:4.0000000;stroke-dasharray:none;stroke-dashoffset:0.0000000;stroke-opacity:1.0000000;visibility:visible;display:inline;overflow:visible" />
      <rect
         style="opacity:0.17045452;color:#000000;fill:#000000;fill-opacity:1.0000000;fill-rule:evenodd;stroke:none;stroke-width:1.0000000;stroke-linecap:butt;stroke-linejoin:miter;marker:none;marker-start:none;marker-mid:none;marker-end:none;stroke-miterlimit:4.0000000;stroke-dasharray:none;stroke-dashoffset:0.0000000;stroke-opacity:1.0000000;visibility:visible;display:inline;overflow:visible"
         id="rect2277"
         width="21.000000"
         height="2.0000000"
         x="20.000000"
         y="31.033415" />
    </g>
  </g>
</svg>

<?xml version="1.0" encoding="UTF-8"?>
<svg width="48px" height="48px" version="1.1" xmlns="http://www.w3.org/2000/svg" xmlns:xlink="http://www.w3.org/1999/xlink">
 <defs>
  <linearGradient id="linearGradient15218">
   <stop stop-color="#f0f0ef" offset="0"/>
   <stop stop-color="#e8e8e8" offset=".59929"/>
   <stop stop-color="#fff" offset=".82759"/>
   <stop stop-color="#d8d8d3" offset="1"/>
  </linearGradient>
  <linearGradient id="linearGradient2259">
   <stop stop-color="#fff" offset="0"/>
   <stop stop-color="#fff" stop-opacity="0" offset="1"/>
  </linearGradient>
  <linearGradient id="linearGradient2230" x1="35.997" x2="33.665" y1="40.458" y2="37.771" gradientTransform="translate(6.1618 4.0334)" gradientUnits="userSpaceOnUse">
   <stop stop-color="#7c7c7c" offset="0"/>
   <stop stop-color="#b8b8b8" offset="1"/>
  </linearGradient>
  <linearGradient id="linearGradient2257" x1="33.396" x2="34.17" y1="36.921" y2="38.07" gradientTransform="translate(6.1618 3.6584)" gradientUnits="userSpaceOnUse">
   <stop stop-color="#fff" offset="0"/>
   <stop stop-color="#fff" stop-opacity="0" offset="1"/>
  </linearGradient>
  <linearGradient id="linearGradient4258" x1="22.308" x2="35.785" y1="18.992" y2="39.498" gradientTransform="matrix(1.0657 0 0 .9876 -8.5483 -4.8917)" gradientUnits="userSpaceOnUse" xlink:href="#linearGradient15218"/>
  <linearGradient id="linearGradient4260" x1="26.076" x2="30.811" y1="26.697" y2="42.007" gradientTransform="matrix(.9985 0 0 .99825 -6.9704 -4.8929)" gradientUnits="userSpaceOnUse" xlink:href="#linearGradient2259"/>
  <linearGradient id="linearGradient13651" x1="26.076" x2="30.811" y1="26.697" y2="42.007" gradientTransform="matrix(.99942 0 0 1 5.9913 4.0334)" gradientUnits="userSpaceOnUse" xlink:href="#linearGradient2259"/>
  <linearGradient id="linearGradient13653" x1="22.308" x2="35.785" y1="18.992" y2="39.498" gradientTransform="matrix(1.0672 0 0 .98928 4.3917 4.0352)" gradientUnits="userSpaceOnUse" xlink:href="#linearGradient15218"/>
 </defs>
 <g transform="matrix(1.0015 0 0 1.0006 -.050022 -.063049)" opacity=".5">
  <rect x="20.162" y="34.033" width="13" height="2" color="#000000" fill-rule="evenodd" opacity=".17045"/>
  <rect x="1.5484" y="1.5629" width="30.952" height="35.977" rx=".56566" ry=".56616" fill="url(#linearGradient4258)" fill-rule="evenodd" opacity="1" stroke="#888a85" stroke-width=".99894"/>
  <rect x="2.5325" y="2.5606" width="28.971" height="33.981" rx="0" ry="0" fill="none" opacity="1" stroke="url(#linearGradient4260)" stroke-width=".99894"/>
  <g fill-rule="evenodd">
   <rect x="7.0161" y="10.033" width="21" height="2" color="#000000" opacity=".17045"/>
   <rect x="7.0161" y="14.033" width="20" height="2" color="#000000" opacity=".17045"/>
   <rect x="7.0161" y="18.033" width="18" height="2" color="#000000" opacity=".17045"/>
   <rect x="7.0161" y="22.033" width="21" height="2" color="#000000" opacity=".17045"/>
   <rect x="7.0161" y="26.033" width="13" height="2" color="#000000" opacity=".17045"/>
  </g>
 </g>
 <path d="m15.073 10.501h29.856c0.31574 0 0.56993 0.25309 0.56993 0.56747v27.167c0 2.4765-6.8798 8.3031-9.2679 8.3031h-21.158c-0.31574 0-0.56993-0.25309-0.56993-0.56747v-34.903c0-0.31438 0.25419-0.56747 0.56993-0.56747z" fill="url(#linearGradient13653)" fill-rule="evenodd" stroke="#888a85"/>
 <g>
  <rect x="15.503" y="11.5" width="28.997" height="34.041" rx="0" ry="0" fill="none" stroke="url(#linearGradient13651)"/>
  <path d="m36.221 46.537c2.0304 0.3299 9.5888-4.5299 9.2844-8.4978-1.5633 2.4231-4.7585 1.2867-8.8673 1.4457 0 0 0.39537 6.5521-0.41713 7.0521z" color="#000000" fill="url(#linearGradient2230)" fill-rule="evenodd" stroke="#868a84"/>
  <path d="m37.671 44.345c1.3698-0.68383 4.4282-2.1465 5.7276-4.0275-1.5961 0.68006-2.9478 0.2095-5.7023 0.1904 0 0 0.16232 3.0621-0.0253 3.8371z" color="#000000" fill="none" opacity=".36932" stroke="url(#linearGradient2257)"/>
 </g>
 <g fill-rule="evenodd">
  <rect x="20" y="19.033" width="21" height="2" color="#000000" opacity=".17045"/>
  <rect x="20" y="23.033" width="19.992" height="2" color="#000000" opacity=".17045"/>
  <rect x="20" y="27.033" width="17.977" height="2" color="#000000" opacity=".17045"/>
  <rect x="20" y="31.033" width="21" height="2" color="#000000" opacity=".17045"/>
 </g>
</svg>
